img/cont-3.svg

<svg width="125" height="86" viewBox="0 0 125 86" fill="none" xmlns="http://www.w3.org/2000/svg">
<rect width="125" height="86" rx="5" fill="#CCE2F5"/>
<path d="M39.056 58.008H32.816L31.472 61H30.24L35.36 49.8H36.528L41.648 61H40.4L39.056 58.008ZM38.624 57.048L35.936 51.032L33.248 57.048H38.624ZM53.6041 56.776C53.6041 58.088 53.1721 59.1173 52.3081 59.864C51.4441 60.6107 50.2228 61.016 48.6441 61.08V64.104H47.5401V61.096C45.9721 61.032 44.7561 60.6267 43.8921 59.88C43.0388 59.1227 42.6121 58.088 42.6121 56.776C42.6121 55.4747 43.0388 54.456 43.8921 53.72C44.7561 52.984 45.9721 52.584 47.5401 52.52V49.128H48.6441V52.52C50.2228 52.5947 51.4441 53 52.3081 53.736C53.1721 54.472 53.6041 55.4853 53.6041 56.776ZM43.7321 56.776C43.7321 57.7787 44.0521 58.5627 44.6921 59.128C45.3428 59.6933 46.2921 60.0133 47.5401 60.088V53.528C46.3028 53.592 45.3588 53.9067 44.7081 54.472C44.0575 55.0267 43.7321 55.7947 43.7321 56.776ZM48.6441 60.088C49.8921 60.024 50.8415 59.7093 51.4921 59.144C52.1535 58.5787 52.4841 57.7893 52.4841 56.776C52.4841 55.784 52.1535 55.0107 51.4921 54.456C50.8415 53.9013 49.8921 53.592 48.6441 53.528V60.088ZM60.3426 52.52C61.132 52.52 61.8466 52.7013 62.4866 53.064C63.1266 53.416 63.628 53.9173 63.9906 54.568C64.3533 55.2187 64.5346 55.96 64.5346 56.792C64.5346 57.6347 64.3533 58.3813 63.9906 59.032C63.628 59.6827 63.1266 60.1893 62.4866 60.552C61.8573 60.904 61.1426 61.08 60.3426 61.08C59.66 61.08 59.0413 60.9413 58.4866 60.664C57.9426 60.376 57.4946 59.96 57.1426 59.416V64.104H56.0066V52.584H57.0946V54.248C57.436 53.6933 57.884 53.2667 58.4386 52.968C59.004 52.6693 59.6386 52.52 60.3426 52.52ZM60.2626 60.072C60.8493 60.072 61.3826 59.9387 61.8626 59.672C62.3426 59.3947 62.716 59.0053 62.9826 58.504C63.26 58.0027 63.3986 57.432 63.3986 56.792C63.3986 56.152 63.26 55.5867 62.9826 55.096C62.716 54.5947 62.3426 54.2053 61.8626 53.928C61.3826 53.6507 60.8493 53.512 60.2626 53.512C59.6653 53.512 59.1266 53.6507 58.6466 53.928C58.1773 54.2053 57.804 54.5947 57.5266 55.096C57.26 55.5867 57.1266 56.152 57.1266 56.792C57.1266 57.432 57.26 58.0027 57.5266 58.504C57.804 59.0053 58.1773 59.3947 58.6466 59.672C59.1266 59.9387 59.6653 60.072 60.2626 60.072ZM66.9754 52.584H68.1114V59.272L73.7274 52.584H74.7354V61H73.5994V54.312L67.9994 61H66.9754V52.584ZM81.047 57.256H79.127V61H77.991V52.584H79.127V56.28H81.063L84.023 52.584H85.255L81.943 56.664L85.495 61H84.151L81.047 57.256ZM90.0276 52.52C91.1263 52.52 91.969 52.7973 92.5556 53.352C93.1423 53.896 93.4356 54.7067 93.4356 55.784V61H92.3476V59.688C92.0916 60.1253 91.713 60.4667 91.2116 60.712C90.721 60.9573 90.1343 61.08 89.4516 61.08C88.513 61.08 87.7663 60.856 87.2116 60.408C86.657 59.96 86.3796 59.368 86.3796 58.632C86.3796 57.9173 86.6356 57.3413 87.1476 56.904C87.6703 56.4667 88.497 56.248 89.6276 56.248H92.2996V55.736C92.2996 55.0107 92.097 54.4613 91.6916 54.088C91.2863 53.704 90.6943 53.512 89.9156 53.512C89.3823 53.512 88.8703 53.6027 88.3796 53.784C87.889 53.9547 87.4676 54.1947 87.1156 54.504L86.6036 53.656C87.0303 53.2933 87.5423 53.016 88.1396 52.824C88.737 52.6213 89.3663 52.52 90.0276 52.52ZM89.6276 60.184C90.2676 60.184 90.817 60.04 91.2756 59.752C91.7343 59.4533 92.0756 59.0267 92.2996 58.472V57.096H89.6596C88.2196 57.096 87.4996 57.5973 87.4996 58.6C87.4996 59.0907 87.6863 59.48 88.0596 59.768C88.433 60.0453 88.9556 60.184 89.6276 60.184Z" fill="black"/>
<g clip-path="url(#clip0)">
<path d="M74.2026 17.0781L69.8266 8.03405L64.9747 6.80879L63.93 8.67587L59.966 6.92544L59.6159 5H53.5646L48.0049 10.9977V18.6349L51.7099 22.3399L56.9903 20.8703L59.2075 22.2415L61.2496 29.0972L60.3744 33.1815L63.2917 41H66.6175L70.3295 36.9519L71.4381 33.451L74.2388 30.6504L74.1179 25.0713L76.8866 20.9287L77.9951 17.1853V16.4947L74.2026 17.0781Z" fill="white"/>
</g>
<defs>
<clipPath id="clip0">
<rect width="36" height="36" fill="white" transform="translate(45 5)"/>
</clipPath>
</defs>
</svg>

<svg width="125" height="86" fill="none" xmlns="http://www.w3.org/2000/svg"><rect width="125" height="86" rx="5" fill="#CCE2F5"/><path d="M39.056 58.008h-6.24L31.472 61H30.24l5.12-11.2h1.168l5.12 11.2H40.4l-1.344-2.992zm-.432-.96l-2.688-6.016-2.688 6.016h5.376zm14.98-.272c0 1.312-.432 2.341-1.296 3.088-.864.747-2.085 1.152-3.664 1.216v3.024H47.54v-3.008c-1.568-.064-2.784-.47-3.648-1.216-.853-.757-1.28-1.792-1.28-3.104 0-1.301.427-2.32 1.28-3.056.864-.736 2.08-1.136 3.648-1.2v-3.392h1.104v3.392c1.579.075 2.8.48 3.664 1.216.864.736 1.296 1.75 1.296 3.04zm-9.872 0c0 1.003.32 1.787.96 2.352.65.565 1.6.885 2.848.96v-6.56c-1.237.064-2.181.379-2.832.944-.65.555-.976 1.323-.976 2.304zm4.912 3.312c1.248-.064 2.198-.379 2.848-.944.662-.565.992-1.355.992-2.368 0-.992-.33-1.765-.992-2.32-.65-.555-1.6-.864-2.848-.928v6.56zm11.699-7.568c.789 0 1.504.181 2.144.544.64.352 1.141.853 1.504 1.504.362.65.544 1.392.544 2.224 0 .843-.182 1.59-.544 2.24a3.888 3.888 0 01-1.504 1.52c-.63.352-1.344.528-2.144.528a4.093 4.093 0 01-1.856-.416 3.582 3.582 0 01-1.344-1.248v4.688h-1.136v-11.52h1.088v1.664a3.51 3.51 0 011.344-1.28c.565-.299 1.2-.448 1.904-.448zm-.08 7.552c.586 0 1.12-.133 1.6-.4.48-.277.853-.667 1.12-1.168.277-.501.416-1.072.416-1.712 0-.64-.139-1.205-.416-1.696a2.882 2.882 0 00-1.12-1.168 3.14 3.14 0 00-1.6-.416c-.598 0-1.136.139-1.616.416a3.02 3.02 0 00-1.12 1.168c-.267.49-.4 1.056-.4 1.696 0 .64.133 1.21.4 1.712.277.501.65.89 1.12 1.168.48.267 1.018.4 1.616.4zm6.712-7.488h1.136v6.688l5.616-6.688h1.008V61H73.6v-6.688L68 61h-1.024v-8.416zm14.072 4.672h-1.92V61h-1.136v-8.416h1.136v3.696h1.936l2.96-3.696h1.232l-3.312 4.08L85.495 61h-1.344l-3.104-3.744zm8.98-4.736c1.1 0 1.942.277 2.529.832.586.544.88 1.355.88 2.432V61h-1.088v-1.312c-.256.437-.635.779-1.136 1.024-.491.245-1.078.368-1.76.368-.939 0-1.686-.224-2.24-.672-.555-.448-.832-1.04-.832-1.776 0-.715.256-1.29.768-1.728.522-.437 1.349-.656 2.48-.656H92.3v-.512c0-.725-.203-1.275-.608-1.648-.406-.384-.998-.576-1.776-.576-.534 0-1.046.09-1.536.272-.491.17-.912.41-1.264.72l-.512-.848c.426-.363.938-.64 1.536-.832a5.836 5.836 0 011.888-.304zm-.4 7.664c.64 0 1.19-.144 1.649-.432.458-.299.8-.725 1.024-1.28v-1.376h-2.64c-1.44 0-2.16.501-2.16 1.504 0 .49.186.88.56 1.168.373.277.896.416 1.568.416z" fill="#000"/><g clip-path="url(#clip0)"><path d="M74.203 17.078l-4.376-9.044-4.852-1.225-1.045 1.867-3.964-1.75L59.616 5h-6.051l-5.56 5.998v7.637l3.705 3.705 5.28-1.47 2.218 1.371 2.042 6.856-.876 4.084L63.292 41h3.326l3.712-4.048 1.108-3.501 2.8-2.8-.12-5.58 2.769-4.142 1.108-3.744v-.69l-3.792.583z" fill="#fff"/></g><defs><clipPath id="clip0"><path fill="#fff" transform="translate(45 5)" d="M0 0h36v36H0z"/></clipPath></defs></svg>
